assets/icons/qvision/shop.svg

<svg xmlns="http://www.w3.org/2000/svg" height="24" viewBox="0 0 24 24" width="24"><path d="M0 0h24v24H0z" fill="none"/><path d="M16 6V4c0-1.11-.89-2-2-2h-4c-1.11 0-2 .89-2 2v2H2v13c0 1.11.89 2 2 2h16c1.11 0 2-.89 2-2V6h-6zm-6-2h4v2h-4V4zM9 18V9l7.5 4L9 18z"/></svg>

<svg width="24" height="24" viewBox="0 0 24 24" fill="none" xmlns="http://www.w3.org/2000/svg">
<g clip-path="url(#clip0_147_4747)">
<path d="M16 6V4C16 2.89 15.11 2 14 2H10C8.89 2 8 2.89 8 4V6H2V19C2 20.11 2.89 21 4 21H20C21.11 21 22 20.11 22 19V6H16ZM10 4H14V6H10V4ZM9 18V9L16.5 13L9 18Z" fill="#323232"/>
</g>
<defs>
<clipPath id="clip0_147_4747">
<rect width="24" height="24" fill="white"/>
</clipPath>
</defs>
</svg>
